X:7120
T:The New Copperplate
O:england
M:2/2
L:1/8
R:Reel
K:G
~G2dG ~G2dG|~G2dc BAGB|~A2eA ~A2eA|~A2ed cAFA|
~G2dG ~G2dG|~G2dc BAGB|ABcd efge|1 aged cAFA:||2 aged cdef|
||:~g3f g2ef|gedc BG~G2|eaag a3g|aged cdef|
~g3f g2ef|gedc BG~G2|ABcd efge|1 aged cdef:||2 aged cAFA||
